src/assets/logos/anaconda.svg

<svg height="77" viewBox="0 0 450 77" width="450" xmlns="http://www.w3.org/2000/svg"><path d="m27.2 75.6c-8.8-3.4-9.9-4.4-10-8.9l-.2-4.2-.6 3.9-.6 3.8-4.7-5c-2.7-2.8-4.8-5.3-4.8-5.6 0-.2.8-.7 1.7-.9 1.4-.4 1.2-.5-.4-.6-2.8-.1-2.8.1-.3-5.5l1.9-4.6 3.6 1.7c1.9.9 3.5 2.4 3.6 3.2 0 1.2.2 1.2.6.3.4-1 1.7-.1 4.2 2.6 5.7 6.1 9.4 7.7 18.1 7.7 8.9 0 13.9-2.2 19.2-8.5 4.1-4.7 5.8-9.8 5.8-17.1-.1-13.1-10.3-23.8-23.1-24.2-3.2-.1-4.9-.6-4.9-1.4 0-.7.3-1.3.8-1.3.4 0 1.5-1.2 2.5-2.5 1.7-2.4 1.7-2.5-1.8-4.7-1.9-1.3-3.5-2.6-3.5-3 0-1.4 11.3-.8 16.5.8 7.8 2.5 15.4 8.2 20.2 15.3 5.3 7.7 6.7 12.5 6.7 22.7 0 6.9-.5 9-3.1 14.6-4.2 8.9-10.1 15.1-18.2 19.1-5.8 2.8-7.6 3.2-16.1 3.4-6.1.2-10.8-.2-13.1-1.1zm-7.1-15.3c-2.1-.2-3.8-.8-3.8-1.2s-1.5-.5-3.2-.2l-3.3.5 3.5.7c1.9.3 5.1.6 7 .6h3.5zm422.8 1.4c-2.2-1.6-1.8-5.5.7-7.1 3.9-2.4 7.9 4.4 4.1 7.1-1 .7-2.1 1.3-2.4 1.3s-1.4-.6-2.4-1.3zm-281.7-13.5-12.4-13.9-.3 13.3-.3 13.4h-4.4-4.5v-22c0-19.7.2-22.1 1.7-22.7 1.2-.5 5 2.9 14.4 12.8l12.8 13.4.1-12.7v-12.8h4.5 4.5l-.2 22.2c-.3 19.2-.5 22.3-1.9 22.6-.9.2-6.4-5.2-14-13.6zm76.9 12.8c-7.6-2.3-13.7-8.7-15.8-16.8-2.6-9.9 2.4-20.4 12.1-25.5 4.7-2.5 6.2-2.8 11.7-2.4 4.5.3 7.4 1.2 10.2 3.1 4.7 3.1 4.9 4.4 1.5 7.6l-2.5 2.4-4.1-2.3c-3.1-1.8-5.1-2.2-8.1-1.8-11.1 1.5-15.4 16.8-6.7 24.1 3.7 3.1 10.2 3.5 15.6.9 3.4-1.6 3.5-1.6 6 1 1.4 1.4 2.3 3.2 2 4s-2.9 2.6-5.8 4.1c-5.4 2.7-10.8 3.2-16.1 1.6zm39.3-.4c-4.9-1.8-11.1-7.4-13.2-12-1.1-2.4-1.9-6.4-1.9-9.6 0-19.7 22.8-30.2 37.2-17.2 5.3 4.8 7.8 10.2 7.8 17.2s-2.6 12.6-7.9 17.1c-6.4 5.6-14.5 7.2-22 4.5zm16.1-11.3c5-4.5 6.2-11.5 2.8-17-5.5-9-16.8-9.3-22.7-.4-3.7 5.5-2.7 12.8 2.6 17.5 4.1 3.8 13.1 3.7 17.3-.1zm41.6-.9-12.3-13.6-.3 13.1-.3 13.1h-4.4-4.5v-22.5c0-20.8.1-22.5 1.8-22.5.9 0 7.1 5.9 13.7 13l12 13 .3-12.6.3-12.5 4.4.3c2.5.2 4.5.6 4.5 1.1v22.2c0 17.9-.2 21.5-1.4 21.5-.8 0-7-6.1-13.8-13.6zm-240.8 11.4c0-.7 4.4-10.8 9.8-22.5 6.4-14.2 10.2-21.3 11.2-21.3s4.8 7.1 11.3 21.5c5.3 11.8 9.7 21.9 9.7 22.5 0 .5-2 1-4.5 1-4.3 0-4.6-.2-6.1-4l-1.6-4h-8.8-8.7l-1.8 4c-1.7 3.8-2 4-6.2 4-2.7 0-4.3-.4-4.3-1.2zm24.3-18.5c-3.3-8-3.3-8-5.9-2.3-1.3 2.9-2.4 5.4-2.4 5.6s2.2.4 4.9.4h5zm61.7 18.9c0-.5 4.4-10.5 9.9-22.3 7-15.1 10.3-21.4 11.5-21.4 1.1 0 4.5 6.4 11.6 21.9 5.5 12 10 22 10 22.2s-2.2.4-4.8.4c-4.8 0-4.9-.1-6.5-4l-1.5-4h-8.9-8.8l-1.7 4c-1.6 3.8-1.8 4-6.2 4-2.5 0-4.6-.4-4.6-.8zm25.7-16.4c-4.5-11.3-4.2-11.2-7.5-3.5l-2.1 4.7h5.1c3.6 0 4.9-.3 4.5-1.2zm151.3-4.8v-22h11c12.9 0 16.6 1.3 22.3 8.1 7.6 8.8 6.7 21.9-2 30.1-4.8 4.6-9.2 5.8-20.8 5.8h-10.5zm23.9 10.5c5.8-4.9 6.5-13.6 1.5-19.4-2.6-3.2-7.6-5.1-13.1-5.1h-3.3v13.5 13.5h5.9c4.9 0 6.5-.4 9-2.5zm13.8 10.8c-.2-.5 4.1-10.6 9.7-22.6 7.1-15.4 10.5-21.7 11.5-21.5 1.4.3 20.9 40.6 21 43.6.1.8-1.4 1.2-4.5 1.2-4.4 0-4.6-.1-6.1-4l-1.6-4h-8.9-8.8l-1.6 4c-1.5 3.8-1.8 4-5.9 4-2.4 0-4.6-.3-4.8-.7zm24.1-20c-3.3-7.7-3-7.8-7.5 3.5-.4.9.9 1.2 4.5 1.2h5.1zm-417.2 8.9c-.9-3.2-1.6-6.1-1.6-6.5 0-1.2 6.2-7.7 7.4-7.7.7 0 2.2 1.3 3.3 2.8l2.1 2.9-2.3 2.9-2.3 2.9-3.1-2.2c-1.6-1.3-3.3-2.3-3.7-2.3s.6 1 2.2 2.2 3.2 2.4 3.7 2.8c.9.8-2 8-3.2 8-.5 0-1.6-2.6-2.5-5.8zm11.7 0c-3.8-1.8-3.9-2.3-1.7-5.7 2.1-3.2 3.4-3.2 3.4.1 0 1.4.5 3.4 1.1 4.6 1.4 2.7 1 2.8-2.8 1zm-12.9-15c.8-5.8 1.5-8.2 2.5-8.2 1.2 0 4.3 7.2 3.4 7.9-.4.4-2.1 1.7-3.7 3.1l-2.9 2.5zm10.8 2.5c-1.2-1.3-2.2-2.6-2.2-2.9s1.5-1.5 3.3-2.7c1.7-1.1 2.7-2.1 2.2-2.1-.6 0-2.1.7-3.3 1.6-1.2.8-2.7 1.2-3.2.9-1-.6-4-7-4-8.5 0-.7 6.7-3 8.7-3 1.1 0 2.6 7.1 2.3 11-.1 1.4-.3 3.7-.3 5.3-.2 3.3-.7 3.4-3.5.4zm4.8-12.1c0-.8-.2-2.1-.6-2.9-.3-1 .5-1.6 2.7-2.1 1.8-.3 3.4-.5 3.5-.3.5.5-4 6.7-4.8 6.7-.5 0-.8-.6-.8-1.4zm-9.6-6.1c.8-2.2 4.9-7.4 5.9-7.4.4-.1.7 1.4.7 3.3 0 3.8-.2 4-4.4 5-2.4.6-2.8.4-2.2-.9zm8.6-5v-4.6l3.8.7c5 .9 5.4 1.4 4 5.2-1.1 2.7-1.7 3.2-4.5 3.2-3.2 0-3.3-.1-3.3-4.5zm9 3.2c0-2.6 2.4-4.7 4.8-4.1 3.1.9 2.8 1.8-1.3 3.7-2.7 1.3-3.5 1.4-3.5.4zm6-6c-1.4-.6-2.7-1.2-2.8-1.3-.6-.4 3-7.4 3.7-7.4.3.1 1.9 1.2 3.6 2.5l3 2.5-2.5 2.4c-2.1 2-2.9 2.2-5 1.3zm-12-3.9c0-1.1 10-6.4 10-5.4 0 .2-.7 1.7-1.6 3.4-1.3 2.7-2.1 3.2-5 3.2-2.1 0-3.4-.5-3.4-1.2z" transform="translate(0 -.005)"/></svg>

<svg xmlns="http://www.w3.org/2000/svg" width="450" height="77" viewBox="0 0 450 77">
  <path d="M27.2,75.6 C18.4,72.2 17.3,71.2 17.2,66.7 L17,62.5 L16.4,66.4 L15.8,70.2 L11.1,65.2 C8.4,62.4 6.3,59.9 6.3,59.6 C6.3,59.4 7.1,58.9 8,58.7 C9.4,58.3 9.2,58.2 7.6,58.1 C4.8,58 4.8,58.2 7.3,52.6 L9.2,48 L12.8,49.7 C14.7,50.6 16.3,52.1 16.4,52.9 C16.4,54.1 16.6,54.1 17,53.2 C17.4,52.2 18.7,53.1 21.2,55.8 C26.9,61.9 30.6,63.5 39.3,63.5 C48.2,63.5 53.2,61.3 58.5,55 C62.6,50.3 64.3,45.2 64.3,37.9 C64.2,24.8 54,14.1 41.2,13.7 C38,13.6 36.3,13.1 36.3,12.3 C36.3,11.6 36.6,11 37.1,11 C37.5,11 38.6,9.8 39.6,8.5 C41.3,6.1 41.3,6 37.8,3.8 C35.9,2.5 34.3,1.2 34.3,0.8 C34.3,-0.6 45.6,-1.22901689e-13 50.8,1.6 C58.6,4.1 66.2,9.8 71,16.9 C76.3,24.6 77.7,29.4 77.7,39.6 C77.7,46.5 77.2,48.6 74.6,54.2 C70.4,63.1 64.5,69.3 56.4,73.3 C50.6,76.1 48.8,76.5 40.3,76.7 C34.2,76.9 29.5,76.5 27.2,75.6 Z M20.1,60.3 C18,60.1 16.3,59.5 16.3,59.1 C16.3,58.7 14.8,58.6 13.1,58.9 L9.8,59.4 L13.3,60.1 C15.2,60.4 18.4,60.7 20.3,60.7 L23.8,60.7 L20.1,60.3 Z M442.9,61.7 C440.7,60.1 441.1,56.2 443.6,54.6 C447.5,52.2 451.5,59 447.7,61.7 C446.7,62.4 445.6,63 445.3,63 C445,63 443.9,62.4 442.9,61.7 Z M161.2,48.2 L148.8,34.3 L148.5,47.6 L148.2,61 L143.8,61 L139.3,61 L139.3,39 C139.3,19.3 139.5,16.9 141,16.3 C142.2,15.8 146,19.2 155.4,29.1 L168.2,42.5 L168.3,29.8 L168.3,17 L172.8,17 L177.3,17 L177.1,39.2 C176.8,58.4 176.6,61.5 175.2,61.8 C174.3,62 168.8,56.6 161.2,48.2 Z M238.1,61 C230.5,58.7 224.4,52.3 222.3,44.2 C219.7,34.3 224.7,23.8 234.4,18.7 C239.1,16.2 240.6,15.9 246.1,16.3 C250.6,16.6 253.5,17.5 256.3,19.4 C261,22.5 261.2,23.8 257.8,27 L255.3,29.4 L251.2,27.1 C248.1,25.3 246.1,24.9 243.1,25.3 C232,26.8 227.7,42.1 236.4,49.4 C240.1,52.5 246.6,52.9 252,50.3 C255.4,48.7 255.5,48.7 258,51.3 C259.4,52.7 260.3,54.5 260,55.3 C259.7,56.1 257.1,57.9 254.2,59.4 C248.8,62.1 243.4,62.6 238.1,61 Z M277.4,60.6 C272.5,58.8 266.3,53.2 264.2,48.6 C263.1,46.2 262.3,42.2 262.3,39 C262.3,19.3 285.1,8.8 299.5,21.8 C304.8,26.6 307.3,32 307.3,39 C307.3,46 304.7,51.6 299.4,56.1 C293,61.7 284.9,63.3 277.4,60.6 Z M293.5,49.3 C298.5,44.8 299.7,37.8 296.3,32.3 C290.8,23.3 279.5,23 273.6,31.9 C269.9,37.4 270.9,44.7 276.2,49.4 C280.3,53.2 289.3,53.1 293.5,49.3 Z M335.1,48.4 L322.8,34.8 L322.5,47.9 L322.2,61 L317.8,61 L313.3,61 L313.3,38.5 C313.3,17.7 313.4,16 315.1,16 C316,16 322.2,21.9 328.8,29 L340.8,42 L341.1,29.4 L341.4,16.9 L345.8,17.2 C348.3,17.4 350.3,17.8 350.3,18.3 C350.3,18.7 350.3,28.7 350.3,40.5 C350.3,58.4 350.1,62 348.9,62 C348.1,62 341.9,55.9 335.1,48.4 Z M94.3,59.8 C94.3,59.1 98.7,49 104.1,37.3 C110.5,23.1 114.3,16 115.3,16 C116.3,16 120.1,23.1 126.6,37.5 C131.9,49.3 136.3,59.4 136.3,60 C136.3,60.5 134.3,61 131.8,61 C127.5,61 127.2,60.8 125.7,57 L124.1,53 L115.3,53 L106.6,53 L104.8,57 C103.1,60.8 102.8,61 98.6,61 C95.9,61 94.3,60.6 94.3,59.8 Z M118.6,41.3 C115.3,33.3 115.3,33.3 112.7,39 C111.4,41.9 110.3,44.4 110.3,44.6 C110.3,44.8 112.5,45 115.2,45 L120.2,45 L118.6,41.3 Z M180.3,60.2 C180.3,59.7 184.7,49.7 190.2,37.9 C197.2,22.8 200.5,16.5 201.7,16.5 C202.8,16.5 206.2,22.9 213.3,38.4 C218.8,50.4 223.3,60.4 223.3,60.6 C223.3,60.8 221.1,61 218.5,61 C213.7,61 213.6,60.9 212,57 L210.5,53 L201.6,53 L192.8,53 L191.1,57 C189.5,60.8 189.3,61 184.9,61 C182.4,61 180.3,60.6 180.3,60.2 Z M206,43.8 C201.5,32.5 201.8,32.6 198.5,40.3 L196.4,45 L201.5,45 C205.1,45 206.4,44.7 206,43.8 Z M357.3,39 L357.3,17 L368.3,17 C381.2,17 384.9,18.3 390.6,25.1 C398.2,33.9 397.3,47 388.6,55.2 C383.8,59.8 379.4,61 367.8,61 L357.3,61 L357.3,39 Z M381.2,49.5 C387,44.6 387.7,35.9 382.7,30.1 C380.1,26.9 375.1,25 369.6,25 L366.3,25 L366.3,38.5 L366.3,52 L372.2,52 C377.1,52 378.7,51.6 381.2,49.5 Z M395,60.3 C394.8,59.8 399.1,49.7 404.7,37.7 C411.8,22.3 415.2,16 416.2,16.2 C417.6,16.5 437.1,56.8 437.2,59.8 C437.3,60.6 435.8,61 432.7,61 C428.3,61 428.1,60.9 426.6,57 L425,53 L416.1,53 L407.3,53 L405.7,57 C404.2,60.8 403.9,61 399.8,61 C397.4,61 395.2,60.7 395,60.3 Z M419.1,40.3 C415.8,32.6 416.1,32.5 411.6,43.8 C411.2,44.7 412.5,45 416.1,45 L421.2,45 L419.1,40.3 Z M1.9,49.2 C1,46 0.3,43.1 0.3,42.7 C0.3,41.5 6.5,35 7.7,35 C8.4,35 9.9,36.3 11,37.8 L13.1,40.7 L10.8,43.6 L8.5,46.5 L5.4,44.3 C3.8,43 2.1,42 1.7,42 C1.3,42 2.3,43 3.9,44.2 C5.5,45.4 7.1,46.6 7.6,47 C8.5,47.8 5.6,55 4.4,55 C3.9,55 2.8,52.4 1.9,49.2 Z M13.6,49.2 C9.8,47.4 9.7,46.9 11.9,43.5 C14,40.3 15.3,40.3 15.3,43.6 C15.3,45 15.8,47 16.4,48.2 C17.8,50.9 17.4,51 13.6,49.2 Z M0.7,34.2 C1.5,28.4 2.2,26 3.2,26 C4.4,26 7.5,33.2 6.6,33.9 C6.2,34.3 4.5,35.6 2.9,37 L-2.44249065e-14,39.5 L0.7,34.2 Z M11.5,36.7 C10.3,35.4 9.3,34.1 9.3,33.8 C9.3,33.5 10.8,32.3 12.6,31.1 C14.3,30 15.3,29 14.8,29 C14.2,29 12.7,29.7 11.5,30.6 C10.3,31.4 8.8,31.8 8.3,31.5 C7.3,30.9 4.3,24.5 4.3,23 C4.3,22.3 11,20 13,20 C14.1,20 15.6,27.1 15.3,31 C15.2,32.4 15,34.7 15,36.3 C14.8,39.6 14.3,39.7 11.5,36.7 Z M16.3,24.6 C16.3,23.8 16.1,22.5 15.7,21.7 C15.4,20.7 16.2,20.1 18.4,19.6 C20.2,19.3 21.8,19.1 21.9,19.3 C22.4,19.8 17.9,26 17.1,26 C16.6,26 16.3,25.4 16.3,24.6 Z M6.7,18.5 C7.5,16.3 11.6,11.1 12.6,11.1 C13,11 13.3,12.5 13.3,14.4 C13.3,18.2 13.1,18.4 8.9,19.4 C6.5,20 6.1,19.8 6.7,18.5 Z M15.3,13.5 L15.3,8.9 L19.1,9.6 C24.1,10.5 24.5,11 23.1,14.8 C22,17.5 21.4,18 18.6,18 C15.4,18 15.3,17.9 15.3,13.5 Z M24.3,16.7 C24.3,14.1 26.7,12 29.1,12.6 C32.2,13.5 31.9,14.4 27.8,16.3 C25.1,17.6 24.3,17.7 24.3,16.7 Z M30.3,10.7 C28.9,10.1 27.6,9.5 27.5,9.4 C26.9,9 30.5,2 31.2,2 C31.5,2.1 33.1,3.2 34.8,4.5 L37.8,7 L35.3,9.4 C33.2,11.4 32.4,11.6 30.3,10.7 Z M18.3,6.8 C18.3,5.7 28.3,0.4 28.3,1.4 C28.3,1.6 27.6,3.1 26.7,4.8 C25.4,7.5 24.6,8 21.7,8 C19.6,8 18.3,7.5 18.3,6.8 Z" transform="translate(0 -.005)"/>
</svg>
